dist/assets/img/features/4.svg

<svg width="40" height="40" viewBox="0 0 40 40" fill="none" xmlns="http://www.w3.org/2000/svg">
<path d="M1 20C1 24.0947 1.22071 27.3168 1.78509 29.8563C2.34695 32.3845 3.23603 34.1743 4.53086 35.4691C5.82569 36.764 7.61553 37.6531 10.1437 38.2149C12.6832 38.7793 15.9053 39 20 39C24.0947 39 27.3168 38.7793 29.8563 38.2149C32.3845 37.6531 34.1743 36.764 35.4691 35.4691C36.764 34.1743 37.6531 32.3845 38.2149 29.8563C38.7793 27.3168 39 24.0947 39 20C39 15.9053 38.7793 12.6832 38.2149 10.1437C37.6531 7.61553 36.764 5.82569 35.4691 4.53086C34.1743 3.23603 32.3845 2.34695 29.8563 1.78509C27.3168 1.22071 24.0947 1 20 1C15.9053 1 12.6832 1.22071 10.1437 1.78509C7.61553 2.34695 5.82569 3.23603 4.53086 4.53086C3.23603 5.82569 2.34695 7.61553 1.78509 10.1437C1.22071 12.6832 1 15.9053 1 20Z" stroke="#16171A" stroke-width="2" stroke-linecap="round" stroke-linejoin="round"/>
<path d="M4.1665 13.3334L35.8332 13.3334" stroke="#16171A" stroke-width="4" stroke-linecap="square" stroke-linejoin="round"/>
<path d="M23.3335 30H30.0002" stroke="#16171A" stroke-width="2" stroke-linecap="round" stroke-linejoin="round"/>
</svg>

<svg width="40" height="40" fill="none" xmlns="http://www.w3.org/2000/svg"><path d="M1 20c0 4.095.22 7.317.785 9.856.562 2.529 1.451 4.318 2.746 5.613 1.295 1.295 3.085 2.184 5.613 2.746 2.54.564 5.761.785 9.856.785s7.317-.22 9.856-.785c2.529-.562 4.318-1.451 5.613-2.746 1.295-1.295 2.184-3.084 2.746-5.613.564-2.54.785-5.761.785-9.856s-.22-7.317-.785-9.856c-.562-2.528-1.451-4.318-2.746-5.613-1.295-1.295-3.084-2.184-5.613-2.746C27.316 1.221 24.095 1 20 1s-7.317.22-9.856.785c-2.528.562-4.318 1.451-5.613 2.746-1.295 1.295-2.184 3.085-2.746 5.613C1.221 12.684 1 15.905 1 20z" stroke="#16171A" stroke-width="2" stroke-linecap="round" stroke-linejoin="round"/><path d="M4.167 13.333h31.666" stroke="#16171A" stroke-width="4" stroke-linecap="square" stroke-linejoin="round"/><path d="M23.334 30H30" stroke="#16171A" stroke-width="2" stroke-linecap="round" stroke-linejoin="round"/></svg>
